!!!!SEGMENT: pl-kk--kk-i-6--024-001_lilius-franciszek--missa-kyrie.krn
!!!cenid: 16xx:979
!!!COM: Lilius, Franciszek
!!!COM-rismID:
!!!CDT: ~1600-1657
!!!CNT: Polish
!!!OPR: Missa
!!!OTL: Kyrie
!!!OMV: 001
!!!PDT:
!!!AGN: Sacred; Mass
!!!SMS-siglum: PL-Kk
!!!SMS-shelfmark: Kk.I.6
!!!SMS-shelfwork: 024-001 M
!!!SMS-variant:
!!!SMS-altvar:
!!!NIFC-rismSourceID: 1001135889
!!!NIFC-islandoraID: pl-kk:1634
!!!URL-pdf-islandora: https://repozytorium.nifc.pl/islandora/object/pl-kk%3A1634/datastream/PDF/view
!!!URL-scan: https://polish.musicsources.pl/pl/lokalizacje/galeria/rekopisy/6133 @EN{Scan on Polish Music Herritage in Open Access Website} @PL{Skany w portalu Dziedzictwo Muzyki Polskiej w otwartym dostępie}
!!!ONB-nifc: UWAGA: C (skan 0017, s. 31), T (skan 0120-0121, s. 45-46), B (skan 0231, s. 43) Części Mszy: 1 Kyrie, 2. Et in terra, 3. Patrem, 4. Sanctus, 5. Agnus Dei
!!!AIN: 1 empty 1 tenor 1 vox
!!!key:
**kern	**text	**kern	**text	**kern	**text
*part3	*part3	*part2	*part2	*part1	*part1
*staff3	*staff3	*staff2	*staff2	*staff1	*staff1
*Iempty	*	*Itenor	*	*Ivox	*
*I"Baſsus.	*	*I"Tenor.	*	*I"Cantus.	*
*I'B	*	*I'T	*	*I'S	*
*clefF4	*	*clefC4	*	*clefC4	*
*k[b-]	*	*k[b-]	*	*k[b-]	*
*g:dor	*	*g:dor	*	*g:dor	*
*M2/1	*	*M2/1	*	*M2/1	*
*met(C|)	*	*met(C|)	*	*met(C|)	*
=1-	=1-	=1-	=1-	=1-	=1-
!LO:TX:a:t=Francisci \nLilÿ.	!	!LO:TX:a:t=Francisci \nLilÿ.	!	!LO:TX:a:t=Francisci \nLilÿ	!
!LO:TX:b:t=P:problem=przed kluczem inicjał K	!	!LO:TX:b:t=P:problem=przed kluczem inicjał K	!	!LO:TX:b:t=P:problem=przed kluczem inicjał K	!
!LO:TX:a:t=P:problem=zapisany pomocniczo początek partii T	!	!	!	!	!
0r	.	1.G	Ky-	00r	.
.	.	2G/	-ri-	.	.
=2-	=2-	=2-	=2-	=2-	=2-
1r	.	1B-	-e	.	.
1.D	Ky-	1A	e-	.	.
=3-	=3-	=3-	=3-	=3-	=3-
.	.	1.d	.	00r	.
2D/	-ri-	.	.	.	.
1E-X	-e	.	.	.	.
.	.	2c\	.	.	.
=4-	=4-	=4-	=4-	=4-	=4-
1D	.	2.d\	.	.	.
.	.	4c\	.	.	.
1.G	.	4B-\	.	.	.
.	.	4A/	.	.	.
.	.	1B-\	.	.	.
=5-	=5-	=5-	=5-	=5-	=5-
.	.	.	.	1rA	.
*custos:E	*	*	*	*	*
2F\	e-	2A/	.	.	.
!LO:LB:g=original	!	!	!	!	!
2E-X\	.	2G/	.	2rG	.
2C/	.	1c\	-ley-	1G/	Ky-
=6-	=6-	=6-	=6-	=6-	=6-
0GG	.	.	.	.	.
!	!	!	!	!LO:TX:t=P:problem=kreska pseudotaktowa	!
.	.	4B-\	.	2G/	-ri-
*	*	*custos:G	*	*	*
.	.	4A/	.	.	.
!	!	!LO:LB:g=original	!	!	!
.	.	1G	-son	1B-	-e
=7-	=7-	=7-	=7-	=7-	=7-
1D	-ley-	1rA	.	2A/	.
.	.	.	.	1d	e-
1AA	-son	1.A	Ky-	.	.
!	!	!	!	!LO:SIC:v:s=4c#	!
.	.	.	.	4c\	-ley-
!	!	!	!	!LO:TX:t=P:problem=kreska pseudotaktowa	!
!	!	!	!	!LO:SIC:v:s=4Bn	!
.	.	.	.	4B-\	.
=8-	=8-	=8-	=8-	=8-	=8-
*	*	*	*	*custos:d	*
!	!	!	!	!LO:TX:b:t=P:♯below:problem	!
1rD	.	.	.	1c#X	.
.	.	2A/	-ri-	.	.
!	!	!	!	!LO:LB:g=original	!
2rC	.	1B-	-e	1d	-ſon
*	*ij	*	*	*	*
1D\	Ky-	.	.	.	.
=9-	=9-	=9-	=9-	=9-	=9-
.	.	1A	.	0r	.
2D/	-ri-	.	.	.	.
1BB-	-e	1.d	e-	.	.
=10-	=10-	=10-	=10-	=10-	=10-
*	*	*	*	*	*ij
1AA	.	.	.	1.A	Ky-
!	!	!LO:TX:b:t=P:♯below:problem	!	!	!
.	.	2c#X\	-ley-	.	.
2.D/	.	1d	-son	.	.
!	!	!	!	!LO:TX:t=P:problem=kreska pseudotaktowa	!
.	.	.	.	2A/	-ri-
4C/	.	.	.	.	.
=11-	=11-	=11-	=11-	=11-	=11-
2BB-/	.	2rG	.	1B-	-e
*	*	*	*ij	*	*
2GG/	.	1D	Ky-	.	.
1D	e-	.	.	2A/	.
.	.	2F/	.	1d\	e-
=12-	=12-	=12-	=12-	=12-	=12-
1AA	.	2A/	ri-	.	.
!	!	!	!	!LO:TX:t=P:problem=kreska pseudotaktowa	!
.	.	2.A/	-e	2cny\	.
2.BB-/	.	.	.	1B-	-ley-
.	.	4G/	.	.	.
.	.	1G/	e-	.	.
4C/	.	.	.	.	.
=13-	=13-	=13-	=13-	=13-	=13-
0D	-ley-	.	.	0A	.
!	!	!LO:TX:b:t=P:♯below:problem	!	!	!
.	.	4F#X/	.	.	.
.	.	4E/	.	.	.
!	!	!LO:TX:t=P:problem=♯above	!	!	!
.	.	1F#X	-ley-	.	.
=14-	=14-	=14-	=14-	=14-	=14-
0GG;;	-son	0Gl;;	-son	0B-l;;	-son
*	*Xij	*	*Xij	*	*Xij
!LO:LB:g=original	!	!LO:LB:g=original	!	!LO:LB:g=original	!
=15-	=15-	=15-	=15-	=15-	=15-
*M2/1	*	*M2/1	*	*M2/1	*
*met(C|)	*	*met(C|)	*	*met(C|)	*
!LO:TX:b:t=P:problem=przed kluczem inicjał C	!	!LO:TX:b:t=P:problem=przed kluczem inicjał C	!	!LO:TX:b:t=P:problem=przed kluczem inicjał C	!
00r	.	1.G	CHri-	0r	.
!	!	!LO:TX:b:t=P:♯below:problem	!	!	!
.	.	2F#X/	-ſte	.	.
=16-	=16-	=16-	=16-	=16-	=16-
.	.	2G/	.	2rG	.
.	.	2B-\	.	1G	CHri-
.	.	1A	.	.	.
!	!	!	!	!LO:TX:t=P:problem=kreska pseudotaktowa	!
!	!	!	!	!LO:TX:b:t=P:♯below:problem	!
.	.	.	.	2F#X/	.
=17-	=17-	=17-	=17-	=17-	=17-
0r	.	2.B-\	.	1G	-ste
.	.	4A/	.	.	.
.	.	2G/	.	2B-\	.
!	!	!	!	!LO:TX:t=P:problem=kreska pseudotaktowa	!
.	.	2Fny/	.	2A/	e-
=18-	=18-	=18-	=18-	=18-	=18-
1rD	.	1E-X	.	1G	-ley-
!	!	!	!	!LO:TX:t=P:global:problem=oddech jako rozdzielacz słów	!
2r	.	1D	.	2Fny,</	-son
*	*	*	*	*	*ij
!	!	!	!	!LO:TX:t=P::problem=kreska pseudotaktowa&colon;między nutą a kropką	!
1D\	CHri-	.	.	2.F/	Chri-
=19-	=19-	=19-	=19-	=19-	=19-
.	.	2.A/	e-	.	.
.	.	.	.	4G/	.
!	!	!	!	!LO:TX:t=P:problem=kreska pseudotaktowa	!
2C/	.	.	.	2A/	.
.	.	4G/	-ley-	.	.
2D/	-ſte	1F	-son	2B-\	.
1F\	e-	.	.	1A\	.
=20-	=20-	=20-	=20-	=20-	=20-
*	*	*custos:d	*	*	*
.	.	0r	.	.	.
!	!	!	!	!LO:TX:t=P:problem=kreska pseudotaktowa	!
2Eny\	.	.	.	2G/	.
2D/	.	.	.	2F/	-ste
*	*	*	*	*custos:D	*
2C/	.	.	.	2E/	e-
!	!	!LO:LB:g=original	!	!LO:LB:g=original	!
=21-	=21-	=21-	=21-	=21-	=21-
1BB-	.	1.d	Chri-	2.D/	-ley-
!	!	!	!	!LO:TX:t=P:problem=kreska pseudotaktowa	!
.	.	.	.	4E/	.
1AA	-ley-	.	.	2F/	.
!	!	!LO:TX:b:t=P:♯below:problem	!	!LO:TX:t=P:problem=kreska pseudotaktowa	!
.	.	2c#X\	.	2E/	.
=22-	=22-	=22-	=22-	=22-	=22-
1D	-son	1d	-ſte	4D/	.
.	.	.	.	4E/	.
.	.	.	.	4F/	.
!	!	!	!	!LO:TX:t=P:problem=kreska pseudotaktowa	!
.	.	.	.	4G/	.
1r	.	2f\	e-	1A	.
.	.	2e\	.	.	.
=23-	=23-	=23-	=23-	=23-	=23-
2r	.	2.d\	.	1B-	-son
*	*	*	*	*	*Xij
1G	Chri-	.	.	.	.
.	.	4cny\	.	.	.
.	.	2B-\	.	2r	.
*custos:G	*	*	*	*	*
!LO:TX:b:t=P:♯below:problem	!	!	!	!	!
2F#X\	-ſte	2A/	.	1d\	Chri-
!LO:LB:g=original	!	!	!	!	!
=24-	=24-	=24-	=24-	=24-	=24-
1G	.	2G/	.	.	.
!	!	!	!	!LO:TX:t=P:problem=kreska pseudotaktowa	!
.	.	1d	.	2B-\	.
2B-\	.	.	.	2d\	-ſte
!	!	!	!	!LO:TX:t=P:problem=kreska pseudotaktowa	!
2A\	.	2c\	.	2f\	e-
=25-	=25-	=25-	=25-	=25-	=25-
2G\	.	2B-\	.	2e\	-ley-
!	!	!	!	!LO:TX:t=P:problem=kreska pseudotaktowa	!
2Fny\	.	2A/	.	2d\	.
1E	.	1G	.	1e	.
=26-	=26-	=26-	=26-	=26-	=26-
1D	.	1F	.	2A,/	-son
*	*	*	*	*	*ij
!	!	!	!	!LO:TX:t=P:problem=kreska pseudotaktowa	!
.	.	.	.	2A/	Chri-
1GG	e-	1B-	.	1.G	-ſte
=27-	=27-	=27-	=27-	=27-	=27-
0AA	-ley-	0A	-ley-	.	.
.	.	.	.	2F/	e-
.	.	.	.	1E	-ley-
=28-	=28-	=28-	=28-	=28-	=28-
!LO:TX:a:t=P:problem=na końcu linijki dopisany pomocniczo początek partii T	!	!	!	!LO:TX:b:t=P:problem=♯below, pod 1E	!
0Dl;;	-son.	0Al;;	-son.	0F#Xl;;	-son
*	*	*	*	*	*Xij
!LO:LB:g=original	!	!LO:LB:g=original	!	!LO:LB:g=original	!
=29-	=29-	=29-	=29-	=29-	=29-
*M2/1	*	*M2/1	*	*M2/1	*
*met(C|)	*	*met(C|)	*	*met(C|)	*
!	!	!LO:N:acc=#	!	!	!
!	!	!LO:TX:b:t=P:♯below:problem	!	!	!
!LO:TX:b:t=P:problem=przed kluczem inicjał K	!	!LO:TX:b:t=P:problem=przed kluczem inicjał K	!	!LO:TX:b:t=P:problem=przed kluczem inicjał K	!
1.GG	Ky-	1.Bn	Ky-	1.G	Ky-
!	!	!	!	!LO:TX:t=P:problem=kreska pseudotaktowa	!
2GG/	-ri-	2B\	-ri-	2G/	-ri-
=30-	=30-	=30-	=30-	=30-	=30-
!	!	!LO:N:acc=#	!	!	!
!	!	!LO:TX:b:t=P:♯below:problem	!	!	!
1GG	-e	1Bn	-e	1G	-e
1C	.	1c	.	1G	.
=31-	=31-	=31-	=31-	=31-	=31-
1BB-	.	1d	.	1B-	.
2AA/	.	2c\	.	1.Fny	e-
2BB-/	[e]-	1B-\	e-	.	.
=32-	=32-	=32-	=32-	=32-	=32-
1FF	-ley-	.	.	.	.
!	!	!	!	!LO:TX:t=P:problem=kreska pseudotaktowa	!
.	.	2A/	-ley-	2F/	-ley-
2BB-/	-son	2B-\	-son	2F/	-son
*	*	*	*ij	*	*
2.FF/	Ky-	2.c\	e-	2.A/	ky-
=33-	=33-	=33-	=33-	=33-	=33-
.	.	.	.	.	.
*custos:G	*	*	*	*	*
4FF/	-ri[e]	4c\	-ley-	4A/	-ri[e]
!LO:LB:g=original	!	!	!	!	!
2GG/	e-	2B-\	.	1G	e-
1D	-ley-	1A	.	.	.
!	!	!	!	!LO:TX:t=P:problem=kreska pseudotaktowa	!
.	.	.	.	2F/	-ley-
=34-	=34-	=34-	=34-	=34-	=34-
2GG/	-son	1B-	-son	2G/	-son
*	*ij	*	*Xij	*	*
2.G\	Ky-	.	.	2.B-\	Ky-
.	.	2r	.	.	.
4G\	-ri-	.	.	4B-\	-ri-
*	*	*	*	*custos:B	*
!	!	!	!	!LO:TX:t=P:problem=kreska pseudotaktowa	!
2F\	-e	2.d\	Ky-	2A/	-e
!	!	!	!	!LO:LB:g=original	!
=35-	=35-	=35-	=35-	=35-	=35-
2G\	e-	.	.	2B-\	e-
.	.	4d\	-ri-	.	.
*	*	*custos:d	*	*	*
!	!	!	!	!LO:TX:t=P:problem=kreska pseudotaktowa	!
2E-X\	.	2c\	-e	2G/	.
!	!	!LO:PB:g=original	!	!	!
1.D	.	2d\	e-	1A	-ley-
.	.	2A/	-ley-	.	.
=36-	=36-	=36-	=36-	=36-	=36-
.	.	2B-\	-son	1G	-son
*	*	*	*ij	*	*
2.G\	.	2.B-\	Ky-	.	.
.	.	.	.	2r	.
4G\	.	4B-\	-ri-	.	.
*	*	*	*	*	*ij
!LO:TX:b:t=P:♯below:problem	!	!	!	!	!
2F#X\	-ley-	2A/	-e	2.d\	Ky-
=37-	=37-	=37-	=37-	=37-	=37-
2G\	-son	2B-\	e-	.	.
.	.	.	.	4d\	-ri-
!	!	!	!	!LO:TX:t=P:problem=kreska pseudotaktowa	!
2E-X\	Ky-	2G/	-ley-	2c\	-e
1D	-ri-	2A/	-son	2d\	e-
!	!	!	!	!LO:TX:t=P:problem=kreska pseudotaktowa	!
.	.	2.d\	Ky-	2A/	-ley-
=38-	=38-	=38-	=38-	=38-	=38-
2BB-/	.	.	.	1.G	-son
.	.	4d\	-ri-	.	.
2C/	.	2c\	-e	.	.
1GG	-e	2d\	e-	.	.
.	.	2B-\	.	2.d\	Ky-
=39-	=39-	=39-	=39-	=39-	=39-
2C/	e-	2A/	.	.	.
.	.	.	.	4d\	-ri-
!	!	!	!	!LO:TX:t=P:problem=kreska pseudotaktowa	!
2E-X\	.	2G/	.	2B-\	-e
!	!	!LO:TX:b:t=P:♯below:problem	!	!	!
0D	-ley-	2F#X/	.	2d\	e-
!	!	!	!	!LO:TX:t=P:problem=kreska pseudotaktowa	!
.	.	2D/	.	2B-\	.
=40-	=40-	=40-	=40-	=40-	=40-
.	.	1d	-ley-	1A	-ley-
!	!	!	!	!LO:N:acc=#	!
1GG;;	-son	1dl;;	-son	1Bn;;	-son
*	*Xij	*	*Xij	*	*Xij
==	==	==	==	==	==
*-	*-	*-	*-	*-	*-
!!!system-decoration: [s1,s2,s3]
!!!RDF**kern: < = below
!!!RDF**kern: l = terminal long
!!!ENC: Marta Lawrence
!!!END: 2021-03-22
!!!ENC: Andrzej Borzym
!!!END: 2021-03-06
